src/icons/svg/Checkmark.svg

<svg width="24" height="24" viewBox="0 0 24 24" fill="none" xmlns="http://www.w3.org/2000/svg">
<path d="M23.769 4.71C23.48 4.421 23.007 4.421 22.718 4.71L8.24396 19.183L1.31696 12.259C1.02496 11.966 0.548964 11.966 0.256964 12.259C-0.0350361 12.552 -0.0350361 13.027 0.256964 13.318L7.68196 20.743C7.68796 20.751 7.69696 20.752 7.70396 20.758C7.70696 20.761 7.70596 20.767 7.70896 20.77C7.99796 21.06 8.46896 21.06 8.75996 20.77L23.769 5.76C24.059 5.47 24.059 4.999 23.769 4.71Z" fill="#1C2125"/>
</svg>

<!-- Generated by IcoMoon.io -->
<svg version="1.1" xmlns="http://www.w3.org/2000/svg" width="24" height="24" viewBox="0 0 24 24">
<title>checkmark</title>
<path fill="#444" d="M23.769 4.71c-0.289-0.289-0.762-0.289-1.051 0l-14.474 14.473-6.927-6.924c-0.292-0.293-0.768-0.293-1.060 0s-0.292 0.768 0 1.059l7.425 7.425c0.006 0.008 0.015 0.009 0.022 0.015 0.003 0.003 0.002 0.009 0.005 0.012 0.289 0.29 0.76 0.29 1.051 0l15.009-15.010c0.29-0.29 0.29-0.761 0-1.050z"></path>
</svg>
